packages/core/src/svgs/tokens/branded/DOGA.svg

<svg width="24" height="24" viewBox="0 0 24 24" fill="none" xmlns="http://www.w3.org/2000/svg">
<path fill-rule="evenodd" clip-rule="evenodd" d="M9.93094 6.13812H2V22H9.93094C10.9724 22 12.0037 21.7948 12.966 21.3962C13.9281 20.9976 14.8024 20.4135 15.5389 19.677C16.2754 18.9406 16.8595 18.0662 17.2581 17.1041C17.6567 16.1418 17.8619 15.1105 17.8619 14.069C17.8619 13.0276 17.6567 11.9963 17.2581 11.034C16.8595 10.0719 16.2754 9.19743 15.5389 8.46107C14.8024 7.72457 13.9281 7.14039 12.966 6.74182C12.0037 6.34326 10.9724 6.13812 9.93094 6.13812ZM9.93094 8.20705H4.06894V19.9311H9.93094C11.4856 19.9311 12.9766 19.3135 14.076 18.2141C15.1752 17.1147 15.7928 15.6236 15.7928 14.069C15.7928 12.5144 15.1752 11.0234 14.076 9.92397C12.9766 8.82458 11.4856 8.20705 9.93094 8.20705Z" fill="url(#paint0_linear_364_6648)"/>
<path d="M17.5028 16.4343L14.9098 17.1722C14.7925 17.3584 14.6615 17.5377 14.5305 17.7033L15.889 19.2963C16.6131 18.4757 17.1718 17.5032 17.5028 16.4343Z" fill="url(#paint1_linear_364_6648)"/>
<path fill-rule="evenodd" clip-rule="evenodd" d="M14.0691 2.00006H6.13818V17.8618H14.0691C16.1724 17.8618 18.1898 17.0263 19.677 15.539C21.1644 14.0516 22 12.0344 22 9.93101C22 7.82756 21.1644 5.8103 19.677 4.32298C18.1898 2.83564 16.1724 2.00006 14.0691 2.00006ZM14.0691 4.06899H8.20719V15.7929H14.0691C15.6239 15.7929 17.1147 15.1753 18.2141 14.0761C19.3135 12.9767 19.9311 11.4856 19.9311 9.93101C19.9311 8.37628 19.3135 6.88526 18.2141 5.78592C17.1147 4.68659 15.6239 4.06899 14.0691 4.06899Z" fill="url(#paint2_linear_364_6648)"/>
<path d="M8.20719 10.2761L6.13818 8.20709H8.20719V10.2761Z" fill="url(#paint3_linear_364_6648)"/>
<defs>
<linearGradient id="paint0_linear_364_6648" x1="5.03567" y1="5.57163" x2="18.6069" y2="18.25" gradientUnits="userSpaceOnUse">
<stop stop-color="#422C81"/>
<stop offset="1" stop-color="#7B368A"/>
</linearGradient>
<linearGradient id="paint1_linear_364_6648" x1="5.03528" y1="5.57139" x2="18.6065" y2="18.2497" gradientUnits="userSpaceOnUse">
<stop stop-color="#422C81"/>
<stop offset="1" stop-color="#7B368A"/>
</linearGradient>
<linearGradient id="paint2_linear_364_6648" x1="5.03598" y1="5.57144" x2="18.6073" y2="18.2498" gradientUnits="userSpaceOnUse">
<stop stop-color="#422C81"/>
<stop offset="1" stop-color="#7B368A"/>
</linearGradient>
<linearGradient id="paint3_linear_364_6648" x1="5.03598" y1="5.57167" x2="18.6073" y2="18.25" gradientUnits="userSpaceOnUse">
<stop stop-color="#422C81"/>
<stop offset="1" stop-color="#7B368A"/>
</linearGradient>
</defs>
</svg>

<svg xmlns="http://www.w3.org/2000/svg" width="24" height="24" fill="none" viewBox="0 0 24 24">
    <path fill="url(#DOGA__a)" fill-rule="evenodd" d="M9.93 6.138H2V22h7.93a7.931 7.931 0 0 0 0-15.862m0 2.07H4.07V19.93h5.86a5.862 5.862 0 0 0 0-11.724" clip-rule="evenodd"/>
    <path fill="url(#DOGA__b)" d="m17.503 16.434-2.593.738a6 6 0 0 1-.38.531l1.359 1.593a7.8 7.8 0 0 0 1.614-2.862"/>
    <path fill="url(#DOGA__c)" fill-rule="evenodd" d="M14.07 2H6.137v15.862h7.931A7.93 7.93 0 1 0 14.07 2m0 2.069H8.206v11.724h5.862a5.862 5.862 0 0 0 0-11.724" clip-rule="evenodd"/>
    <path fill="url(#DOGA__d)" d="M8.207 10.276 6.138 8.207h2.07z"/>
    <defs>
        <linearGradient id="DOGA__a" x1="5.036" x2="18.607" y1="5.572" y2="18.25" gradientUnits="userSpaceOnUse">
            <stop stop-color="#422C81"/>
            <stop offset="1" stop-color="#7B368A"/>
        </linearGradient>
        <linearGradient id="DOGA__b" x1="5.035" x2="18.607" y1="5.571" y2="18.25" gradientUnits="userSpaceOnUse">
            <stop stop-color="#422C81"/>
            <stop offset="1" stop-color="#7B368A"/>
        </linearGradient>
        <linearGradient id="DOGA__c" x1="5.036" x2="18.607" y1="5.571" y2="18.25" gradientUnits="userSpaceOnUse">
            <stop stop-color="#422C81"/>
            <stop offset="1" stop-color="#7B368A"/>
        </linearGradient>
        <linearGradient id="DOGA__d" x1="5.036" x2="18.607" y1="5.572" y2="18.25" gradientUnits="userSpaceOnUse">
            <stop stop-color="#422C81"/>
            <stop offset="1" stop-color="#7B368A"/>
        </linearGradient>
    </defs>
</svg>
